src/sales.svg

<svg xmlns="http://www.w3.org/2000/svg" class="dibsvg-svg dibsvg-sales" viewBox="0 0 100 100">
    <path d="M50,100 C22.3857625,100 0,77.6142375 0,50 C0,22.3857625 22.3857625,0 50,0 C77.6142375,0 100,22.3857625 100,50 C100,77.6142375 77.6142375,100 50,100 Z M50,96 C75.4050985,96 96,75.4050985 96,50 C96,24.5949015 75.4050985,4 50,4 C24.5949015,4 4,24.5949015 4,50 C4,75.4050985 24.5949015,96 50,96 Z M52.5246691,68.23875 L52.5246691,72.955 C52.5246691,74.035 51.503297,75 50.2223729,75 C48.8797175,75 47.8555394,74.035 47.8555394,72.955 L47.8555394,68.29625 C45.1056914,68.0675 42.2281719,67.27375 39.6045924,66.25 C37.3668335,65.39875 35,64.0925 35,62.27375 C35,60.96625 35.9582379,60.22875 37.1114904,60.22875 C38.7740261,60.22875 39.9244727,61.25125 41.3316653,61.87625 C44.0183791,63.12625 46.6419586,63.8075 50.3514474,63.8075 C56.2369639,63.8075 59.3066922,61.76125 59.3066922,58.75 C59.3066922,55.56875 56.3632325,54.14875 49.008792,51.9325 C38.5804143,48.80875 35.5106861,45.96875 35.5106861,40.73875 C35.5106861,35.22875 40.501099,32.33 48.1108825,31.705 L48.1108825,27.04625 C48.1108825,25.96875 49.0733293,25 50.4159847,25 C51.75864,25 52.7828181,25.96875 52.7828181,27.04625 L52.7828181,31.7625 C55.0205771,31.875 57.259739,32.445 59.3066922,33.06875 C61.6735257,33.86625 63.8467474,34.775 63.8467474,36.4225 C63.8467474,37.5575 63.1438526,38.4675 61.5444512,38.4675 C60.9706309,38.4675 60.3926016,38.2975 59.9464528,38.125 C56.74765,36.87625 54.0609363,36.025 50.4159847,36.025 C44.9794229,36.025 41.2699341,37.5025 41.2699341,40.73875 C41.2699341,44.035 43.6970958,45.0575 51.246551,47.44375 C59.752841,50.115 65,52.33 65,58.41 C65,63.75125 60.7770191,67.27375 52.5246691,68.23875 Z"/>
</svg>

<svg xmlns="http://www.w3.org/2000/svg" class="dibsvg-svg dibsvg-sales" viewBox="0 0 100 100">
    <path d="M50 100C22.386 100 0 77.614 0 50S22.386 0 50 0s50 22.386 50 50-22.386 50-50 50zm0-4c25.405 0 46-20.595 46-46S75.405 4 50 4 4 24.595 4 50s20.595 46 46 46zm2.525-27.761v4.716c0 1.08-1.022 2.045-2.303 2.045-1.342 0-2.366-.965-2.366-2.045v-4.659c-2.75-.229-5.628-1.022-8.251-2.046C37.367 65.399 35 64.093 35 62.274c0-1.308.958-2.045 2.111-2.045 1.663 0 2.813 1.022 4.22 1.647 2.687 1.25 5.311 1.931 9.02 1.931 5.886 0 8.956-2.046 8.956-5.057 0-3.181-2.944-4.601-10.298-6.818C38.58 48.81 35.51 45.97 35.51 40.74c0-5.51 4.99-8.409 12.6-9.034v-4.659c0-1.077.962-2.046 2.305-2.046 1.343 0 2.367.969 2.367 2.046v4.716c2.238.113 4.477.683 6.524 1.307 2.367.797 4.54 1.706 4.54 3.353 0 1.136-.703 2.046-2.303 2.046-.573 0-1.151-.17-1.598-.343-3.198-1.249-5.885-2.1-9.53-2.1-5.437 0-9.146 1.477-9.146 4.714 0 3.296 2.427 4.319 9.977 6.705C59.753 50.115 65 52.33 65 58.41c0 5.341-4.223 8.864-12.475 9.829z"/>
</svg>
